src/lib/packages/icons/src/assets/line/file-search.svg

<svg xmlns="http://www.w3.org/2000/svg" width="24" height="24" fill="none"><path fill="currentColor" d="m20.53 8.47-6-6a.749.749 0 0 0-.53-.22H8C5.582 2.25 4.25 3.582 4.25 6v12c0 2.418 1.332 3.75 3.75 3.75h9c2.418 0 3.75-1.332 3.75-3.75V9a.747.747 0 0 0-.22-.53Zm-5.78-3.659 3.439 3.439H17c-1.577 0-2.25-.673-2.25-2.25V4.811ZM17 20.25H8c-1.577 0-2.25-.673-2.25-2.25V6c0-1.577.673-2.25 2.25-2.25h5.25V6c0 2.418 1.332 3.75 3.75 3.75h2.25V18c0 1.577-.673 2.25-2.25 2.25Zm-2.02-4.33a3.645 3.645 0 0 0 .603-2.003 3.67 3.67 0 0 0-3.666-3.667 3.671 3.671 0 0 0-3.667 3.667 3.67 3.67 0 0 0 3.667 3.666c.74 0 1.426-.224 2.003-.602l1.55 1.549a.748.748 0 0 0 1.06 0 .75.75 0 0 0 0-1.061l-1.55-1.549Zm-5.23-2.003a2.17 2.17 0 0 1 2.167-2.167 2.17 2.17 0 0 1 2.166 2.167 2.169 2.169 0 0 1-2.166 2.166 2.17 2.17 0 0 1-2.167-2.166Z"/></svg>

<svg width="24" height="24" viewBox="0 0 24 24" fill="none" xmlns="http://www.w3.org/2000/svg">
<path d="M20.53 8.47L14.53 2.47C14.389 2.329 14.199 2.25 14 2.25H8C5.582 2.25 4.25 3.582 4.25 6V18C4.25 20.418 5.582 21.75 8 21.75H17C19.418 21.75 20.75 20.418 20.75 18V9C20.75 8.801 20.671 8.61 20.53 8.47ZM14.75 4.811L18.189 8.25H17C15.423 8.25 14.75 7.577 14.75 6V4.811ZM17 20.25H8C6.423 20.25 5.75 19.577 5.75 18V6C5.75 4.423 6.423 3.75 8 3.75H13.25V6C13.25 8.418 14.582 9.75 17 9.75H19.25V18C19.25 19.577 18.577 20.25 17 20.25ZM14.98 15.92C15.358 15.343 15.583 14.656 15.583 13.917C15.583 11.895 13.938 10.25 11.917 10.25C9.89499 10.25 8.25 11.895 8.25 13.917C8.25 15.938 9.89499 17.583 11.917 17.583C12.657 17.583 13.3429 17.359 13.9199 16.981L15.47 18.53C15.616 18.676 15.808 18.75 16 18.75C16.192 18.75 16.384 18.677 16.53 18.53C16.823 18.237 16.823 17.762 16.53 17.469L14.98 15.92ZM9.75 13.917C9.75 12.722 10.722 11.75 11.917 11.75C13.111 11.75 14.083 12.722 14.083 13.917C14.083 15.111 13.111 16.083 11.917 16.083C10.722 16.083 9.75 15.111 9.75 13.917Z" fill="currentColor"/>
</svg>
